packages/icon/src/svg/chat.icon.svg

<?xml version="1.0" encoding="UTF-8"?>
<svg width="24px" height="24px" viewBox="0 0 24 24" version="1.1" xmlns="http://www.w3.org/2000/svg" xmlns:xlink="http://www.w3.org/1999/xlink">
    <!-- Generator: Sketch 46.1 (44463) - http://www.bohemiancoding.com/sketch -->
    <title>Icon/chat.icon</title>
    <desc>Created with Sketch.</desc>
    <defs>
        <path d="M6,6 L18,6 L18,8 L6,8 L6,6 Z M6,9 L18,9 L18,11 L6,11 L6,9 Z M6,12 L14,12 L14,14 L6,14 L6,12 Z M4,4.0005 L4,16.0005 L8,16.0005 L8,18.0005 L10.667,16.0005 L20,16.0005 L20,4.0005 L4,4.0005 Z M6,22.0005 L6,18.0005 L4,18.0005 C2.897,18.0005 2,17.1035 2,16.0005 L2,4.0005 C2,2.8975 2.897,2.0005 4,2.0005 L20,2.0005 C21.103,2.0005 22,2.8975 22,4.0005 L22,16.0005 C22,17.1035 21.103,18.0005 20,18.0005 L11.333,18.0005 L6,22.0005 Z" id="path-1"></path>
    </defs>
    <g id="Symbols" stroke="none" stroke-width="1" fill="none" fill-rule="evenodd">
        <g id="Icon/chat">
            <mask id="mask-2" fill="white">
                <use xlink:href="#path-1"></use>
            </mask>
            <use id="Fill-316" fill="#000000" xlink:href="#path-1"></use>
            <g id="Color/Neutral/White" mask="url(#mask-2)" fill="#FFFFFF">
                <rect id="222222-Fill" x="0" y="0" width="24" height="24"></rect>
            </g>
        </g>
    </g>
</svg>

<svg viewBox="0 0 24 24" xmlns="http://www.w3.org/2000/svg"><path d="M6 6h12v2H6V6zm0 3h12v2H6V9zm0 3h8v2H6v-2zM4 4.0005v12h4v2l2.667-2H20v-12H4zm2 18v-4H4c-1.103 0-2-.897-2-2v-12c0-1.103.897-2 2-2h16c1.103 0 2 .897 2 2v12c0 1.103-.897 2-2 2h-8.667l-5.333 4z" /></svg>
